src/topics/icons/ink.svg

<svg height="256" preserveAspectRatio="xMidYMid" viewBox="0 0 256 256" width="256" xmlns="http://www.w3.org/2000/svg" xmlns:xlink="http://www.w3.org/1999/xlink"><linearGradient id="a" x1="38.263925%" x2="58.00444%" y1="9.701879%" y2="40.205593%"><stop offset="0" stop-color="#db221a"/><stop offset="1" stop-color="#9e020b"/></linearGradient><linearGradient id="b" x1="0%" x2="59.126824%" y1="58.373222%" y2="44.551575%"><stop offset="0" stop-color="#87d152"/><stop offset="1" stop-color="#5ca82c"/></linearGradient><linearGradient id="c" x1="55.986839%" x2="47.765821%" y1="94.205496%" y2="50%"><stop offset="0" stop-color="#39be90"/><stop offset="1" stop-color="#2c8a72"/></linearGradient><path d="m25.549 25.331 1.123 4.457 41.545 41.77 42.443-42.668.344-3.559z" fill="url(#a)"/><path d="m68.131 67.84-.663 2.595 23.206 96.788 39.524-39.523-59.286-59.511z" fill="#f6b937"/><path d="m185.89 67.59 40.422-40.572 4.357-1.251v84.192l-3.458-.449z" fill="#ffd500"/><path d="m136.189 0 94.48 25.767-42.29 41.854-8.907019 4.8054526-80.8495793 20.6389008-7.1424017-1.8683534-23.349-23.357z" fill="#fff67d"/><path d="m188.379 67.621-3.387 1.616-21.259 20.66.48 1.89-.63 2.751 22.457 89.828 1.902 3.139.194 2.25 39.524 39.374 2.936 1.031 25.404-94.772z" fill="#5acda5"/><path d="m25.913 145.433v84.872l5.026-1.101 41.32-41.917-43.341-40.948z" fill="url(#b)"/><path d="m25.913 230.305 42.436-43.018 3.91-1.986 92.297-22.906 23.386 25.11-1.041 2.4-37.391 38.738-3.504 1.436-25.03 25.411z" fill="#afe682"/><path d="m164.213 91.787-3.362 1.891-32.113 31.551-.629 2.662 59.833 59.614z" fill="#7dd769"/><path d="m188.379 67.621-60.27 60.27-36.629-36.694z" fill="#aadc50"/><path d="m146.088 230.16 41.854-42.655 42.654 42.655z" fill="url(#c)"/><path d="m0 120.248 68.349 67.039 3.236-1.761 20.773-18.078-.789-3.235-23.438-96.373-42.582-42.509z" fill="#dc4b1e"/><path d="m68.349 187.287 59.76-59.396 36.395 36.249z" fill="#aabe55"/></svg>

<?xml version="1.0" encoding="UTF-8" standalone="no"?>
<svg width="256px" height="256px" viewBox="0 0 256 256" version="1.1" xmlns="http://www.w3.org/2000/svg" xmlns:xlink="http://www.w3.org/1999/xlink" preserveAspectRatio="xMidYMid">
    <defs>
        <linearGradient x1="38.2639253%" y1="9.70187867%" x2="58.0044403%" y2="40.2055933%" id="linearGradient-1">
            <stop stop-color="#DB221A" offset="0%"></stop>
            <stop stop-color="#9E020B" offset="100%"></stop>
        </linearGradient>
        <linearGradient x1="0%" y1="58.3732219%" x2="59.1268243%" y2="44.5515751%" id="linearGradient-2">
            <stop stop-color="#87D152" offset="0%"></stop>
            <stop stop-color="#5CA82C" offset="100%"></stop>
        </linearGradient>
        <linearGradient x1="55.9868385%" y1="94.2054964%" x2="47.7658214%" y2="50%" id="linearGradient-3">
            <stop stop-color="#39BE90" offset="0%"></stop>
            <stop stop-color="#2C8A72" offset="100%"></stop>
        </linearGradient>
    </defs>
	<g>
		<path d="M25.549,25.331 L26.672,29.788 L68.217,71.558 L110.66,28.89 L111.004,25.331 L25.549,25.331" fill="url(#linearGradient-1)"></path>
		<path d="M68.131,67.84 L67.468,70.435 L90.674,167.223 L130.198,127.7 L70.912,68.189 L68.131,67.84" fill="#F6B937"></path>
		<path d="M185.89,67.59 L226.312,27.018 L230.669,25.767 L230.669,109.959 L227.211,109.51 L185.89,67.59" fill="#FFD500"></path>
		<path d="M136.189,0 L230.669,25.767 L188.379,67.621 L179.471981,72.4264526 L98.6224017,93.0653534 L91.48,91.197 L68.131,67.84 L136.189,0 Z" fill="#FFF67D"></path>
		<path d="M188.379,67.621 L184.992,69.237 L163.733,89.897 L164.213,91.787 L163.583,94.538 L186.04,184.366 L187.942,187.505 L188.136,189.755 L227.66,229.129 L230.596,230.16 L256,135.388 L188.379,67.621" fill="#5ACDA5"></path>
		<path d="M25.913,145.433 L25.913,230.305 L30.939,229.204 L72.259,187.287 L28.918,146.339 L25.913,145.433" fill="url(#linearGradient-2)"></path>
		<path d="M25.913,230.305 L68.349,187.287 L72.259,185.301 L164.556,162.395 L187.942,187.505 L186.901,189.905 L149.51,228.643 L146.006,230.079 L120.976,255.49 L25.913,230.305" fill="#AFE682"></path>
		<path d="M164.213,91.787 L160.851,93.678 L128.738,125.229 L128.109,127.891 L187.942,187.505 L164.213,91.787" fill="#7DD769"></path>
		<path d="M188.379,67.621 L128.109,127.891 L91.48,91.197 L188.379,67.621 Z" fill="#AADC50"></path>
		<path d="M146.088,230.16 L187.942,187.505 L230.596,230.16 L146.088,230.16" fill="url(#linearGradient-3)"></path>
		<path d="M0,120.248 L68.349,187.287 L71.585,185.526 L92.358,167.448 L91.569,164.213 L68.131,67.84 L25.549,25.331 L0,120.248" fill="#DC4B1E"></path>
		<path d="M68.349,187.287 L128.109,127.891 L164.504,164.14 L68.349,187.287" fill="#AABE55"></path>
	</g>
</svg>
